;FLAVOR:Marlin
;TIME:2161
;Filament used: 0.386099m
;Layer height: 0.1
;MINX:26.3
;MINY:34.3
;MINZ:0.3
;MAXX:73.7
;MAXY:65.7
;MAXZ:11.4
;Generated with Cura_SteamEngine main
M104 S200
M105
M109 S200
M82 ;absolute extrusion mode
G28 ;Home
G1 Z15.0 F6000 ;Move the platform down 15mm
;Prime the extruder
G92 E0
G1 F200 E3
G92 E0
G92 E0
G92 E0
G1 F1500 E-6.5
;LAYER_COUNT:112
;LAYER:0
M107
G0 F3600 X29.322 Y35.934 Z0.3
G0 X26.3 Y42.1
;TYPE:SKIRT
G1 F1500 E0
G1 F1800 X26.34 Y41.311 E0.01486
G1 X26.459 Y40.531 E0.0297
G1 X26.657 Y39.766 E0.04457
G1 X26.931 Y39.026 E0.05941
G1 X27.279 Y38.317 E0.07427
G1 X27.697 Y37.646 E0.08914
G1 X28.18 Y37.022 E0.10398
G1 X28.723 Y36.449 E0.11883
G1 X29.322 Y35.934 E0.13369
G1 X29.97 Y35.483 E0.14854
G1 X30.661 Y35.099 E0.16341
G1 X31.386 Y34.787 E0.17826
G1 X32.139 Y34.55 E0.19311
G1 X32.913 Y34.391 E0.20797
G1 X33.795 Y34.3 E0.22465
G1 X65.9 Y34.3 E0.82856
G1 X66.689 Y34.34 E0.84342
G1 X67.469 Y34.459 E0.85826
G1 X68.234 Y34.657 E0.87313
G1 X68.974 Y34.931 E0.88797
G1 X69.683 Y35.279 E0.90283
G1 X70.354 Y35.697 E0.9177
G1 X70.978 Y36.18 E0.93254
G1 X71.551 Y36.723 E0.94739
G1 X72.066 Y37.322 E0.96225
G1 X72.517 Y37.97 E0.9771
G1 X72.901 Y38.661 E0.99197
G1 X73.213 Y39.386 E1.00682
G1 X73.45 Y40.139 E1.02167
G1 X73.609 Y40.913 E1.03653
G1 X73.7 Y41.795 E1.05321
G1 X73.7 Y57.9 E1.35616
G1 X73.66 Y58.689 E1.37102
G1 X73.541 Y59.469 E1.38586
G1 X73.343 Y60.234 E1.40072
G1 X73.069 Y60.974 E1.41557
G1 X72.721 Y61.683 E1.43042
G1 X72.303 Y62.354 E1.44529
G1 X71.82 Y62.978 E1.46014
G1 X71.277 Y63.551 E1.47499
G1 X70.678 Y64.066 E1.48985
G1 X70.03 Y64.517 E1.5047
G1 X69.339 Y64.901 E1.51957
G1 X68.614 Y65.213 E1.53441
G1 X67.861 Y65.45 E1.54926
G1 X67.087 Y65.609 E1.56413
G1 X66.205 Y65.7 E1.5808
G1 X34.1 Y65.7 E2.18472
G1 X33.311 Y65.66 E2.19958
G1 X32.531 Y65.541 E2.21442
G1 X31.766 Y65.343 E2.22928
G1 X31.026 Y65.069 E2.24413
G1 X30.317 Y64.721 E2.25898
G1 X29.646 Y64.303 E2.27386
G1 X29.022 Y63.82 E2.2887
G1 X28.449 Y63.277 E2.30355
G1 X27.934 Y62.678 E2.31841
G1 X27.483 Y62.03 E2.33326
G1 X27.099 Y61.339 E2.34813
G1 X26.787 Y60.614 E2.36298
G1 X26.55 Y59.861 E2.37782
G1 X26.391 Y59.087 E2.39269
G1 X26.3 Y58.205 E2.40937
G1 X26.3 Y42.1 E2.71231
G0 F3600 X26.7 Y42.1
G1 F1800 X26.74 Y41.332 E2.72678
G1 X26.859 Y40.572 E2.74125
G1 X27.057 Y39.829 E2.75571
G1 X27.331 Y39.11 E2.77018
G1 X27.678 Y38.424 E2.78465
G1 X28.094 Y37.777 E2.79911
G1 X28.575 Y37.177 E2.81358
G1 X29.116 Y36.63 E2.82805
G1 X29.711 Y36.142 E2.84253
G1 X30.353 Y35.719 E2.85699
G1 X31.036 Y35.364 E2.87147
G1 X31.751 Y35.083 E2.88592
G1 X32.493 Y34.877 E2.9004
G1 X33.251 Y34.749 E2.91487
G1 X34.1 Y34.7 E2.93086
G1 X65.9 Y34.7 E3.52904
G1 X66.668 Y34.74 E3.5435
G1 X67.428 Y34.859 E3.55797
G1 X68.171 Y35.057 E3.57244
G1 X68.89 Y35.331 E3.58691
G1 X69.576 Y35.678 E3.60137
G1 X70.223 Y36.094 E3.61584
G1 X70.823 Y36.575 E3.63031
G1 X71.37 Y37.116 E3.64478
G1 X71.858 Y37.711 E3.65925
G1 X72.281 Y38.353 E3.67372
G1 X72.636 Y39.036 E3.6882
G1 X72.917 Y39.751 E3.70265
G1 X73.123 Y40.493 E3.71713
G1 X73.251 Y41.251 E3.73159
G1 X73.3 Y42.1 E3.74759
G1 X73.3 Y57.9 E4.0448
G1 X73.26 Y58.668 E4.05926
G1 X73.141 Y59.428 E4.07373
G1 X72.943 Y60.171 E4.0882
G1 X72.669 Y60.89 E4.10267
G1 X72.322 Y61.576 E4.11713
G1 X71.906 Y62.223 E4.1316
G1 X71.425 Y62.823 E4.14606
G1 X70.884 Y63.37 E4.16054
G1 X70.289 Y63.858 E4.17501
G1 X69.647 Y64.281 E4.18947
G1 X68.964 Y64.636 E4.20395
G1 X68.249 Y64.917 E4.2184
G1 X67.507 Y65.123 E4.23289
G1 X66.749 Y65.251 E4.24735
G1 X65.9 Y65.3 E4.26335
G1 X34.1 Y65.3 E4.86152
G1 X33.332 Y65.26 E4.87599
G1 X32.572 Y65.141 E4.89046
G1 X31.829 Y64.943 E4.90492
G1 X31.11 Y64.669 E4.9194
G1 X30.424 Y64.322 E4.93386
G1 X29.777 Y63.906 E4.94833
G1 X29.177 Y63.425 E4.96279
G1 X28.63 Y62.884 E4.97726
G1 X28.142 Y62.289 E4.99174
G1 X27.719 Y61.647 E5.0062
G1 X27.364 Y60.964 E5.02068
G1 X27.083 Y60.249 E5.03513
G1 X26.877 Y59.507 E5.04962
G1 X26.749 Y58.749 E5.06408
G1 X26.7 Y57.9 E5.08007
G1 X26.7 Y42.1 E5.37728
G0 F3600 X27.1 Y42.1
G1 F1800 X27.14 Y41.353 E5.39135
G1 X27.259 Y40.615 E5.40541
G1 X27.457 Y39.893 E5.4195
G1 X27.73 Y39.197 E5.43356
G1 X28.077 Y38.534 E5.44764
G1 X28.492 Y37.911 E5.46172
G1 X28.971 Y37.337 E5.47578
G1 X29.508 Y36.816 E5.48985
G1 X30.098 Y36.357 E5.50391
G1 X30.734 Y35.962 E5.518
G1 X31.408 Y35.638 E5.53206
G1 X32.113 Y35.388 E5.54614
G1 X32.841 Y35.214 E5.56021
G1 X33.583 Y35.119 E5.57429
G1 X34.1 Y35.1 E5.58402
G1 X65.9 Y35.1 E6.18219
G1 X66.647 Y35.14 E6.19627
G1 X67.385 Y35.259 E6.21033
G1 X68.107 Y35.457 E6.22441
G1 X68.803 Y35.73 E6.23847
G1 X69.466 Y36.077 E6.25255
G1 X70.089 Y36.492 E6.26663
G1 X70.663 Y36.971 E6.28069
G1 X71.184 Y37.508 E6.29477
G1 X71.643 Y38.098 E6.30883
G1 X72.038 Y38.734 E6.32291
G1 X72.362 Y39.408 E6.33698
G1 X72.612 Y40.113 E6.35105
G1 X72.786 Y40.841 E6.36513
G1 X72.881 Y41.583 E6.3792
G1 X72.9 Y42.1 E6.38893
G1 X72.9 Y57.9 E6.68614
G1 X72.86 Y58.647 E6.70021
G1 X72.741 Y59.385 E6.71427
G1 X72.543 Y60.107 E6.72835
G1 X72.27 Y60.803 E6.74242
G1 X71.923 Y61.466 E6.75649
G1 X71.508 Y62.089 E6.77057
G1 X71.029 Y62.663 E6.78464
G1 X70.492 Y63.184 E6.79871
G1 X69.902 Y63.643 E6.81277
G1 X69.266 Y64.038 E6.82686
G1 X68.592 Y64.362 E6.84092
G1 X67.887 Y64.612 E6.85499
G1 X67.159 Y64.786 E6.86907
G1 X66.417 Y64.881 E6.88314
G1 X65.9 Y64.9 E6.89288
G1 X34.1 Y64.9 E7.49105
G1 X33.353 Y64.86 E7.50512
G1 X32.615 Y64.741 E7.51919
G1 X31.893 Y64.543 E7.53327
G1 X31.197 Y64.27 E7.54733
G1 X30.534 Y63.923 E7.56141
G1 X29.911 Y63.508 E7.57549
G1 X29.337 Y63.029 E7.58955
G1 X28.816 Y62.492 E7.60363
G1 X28.357 Y61.902 E7.61769
G1 X27.962 Y61.266 E7.63177
G1 X27.638 Y60.592 E7.64584
G1 X27.388 Y59.887 E7.65991
G1 X27.214 Y59.159 E7.67399
G1 X27.119 Y58.417 E7.68806
G1 X27.1 Y57.9 E7.69779
G1 X27.1 Y42.1 E7.995
G0 F3600 X27.5 Y42.1
G1 F1800 X27.54 Y41.375 E8.00866
G1 X27.659 Y40.658 E8.02233
G1 X27.857 Y39.959 E8.03599
G1 X28.13 Y39.286 E8.04965
G1 X28.475 Y38.647 E8.06331
G1 X28.889 Y38.05 E8.07698
G1 X29.365 Y37.502 E8.09063
G1 X29.899 Y37.009 E8.10431
G1 X30.484 Y36.579 E8.11796
G1 X31.113 Y36.215 E8.13163
G1 X31.778 Y35.922 E8.1453
G1 X32.471 Y35.704 E8.15897
G1 X33.183 Y35.564 E8.17262
G1 X34.1 Y35.5 E8.18991
G1 X65.9 Y35.5 E8.78808
G1 X66.625 Y35.54 E8.80174
G1 X67.342 Y35.659 E8.81541
G1 X68.041 Y35.857 E8.82908
G1 X68.714 Y36.13 E8.84274
G1 X69.353 Y36.475 E8.8564
G1 X69.95 Y36.889 E8.87007
G1 X70.498 Y37.365 E8.88372
G1 X70.991 Y37.899 E8.89739
G1 X71.421 Y38.484 E8.91105
G1 X71.785 Y39.113 E8.92472
G1 X72.078 Y39.778 E8.93839
G1 X72.296 Y40.471 E8.95205
G1 X72.436 Y41.183 E8.9657
G1 X72.5 Y42.1 E8.983
G1 X72.5 Y57.9 E9.2802
G1 X72.46 Y58.625 E9.29386
G1 X72.341 Y59.342 E9.30753
G1 X72.143 Y60.041 E9.3212
G1 X71.87 Y60.714 E9.33486
G1 X71.525 Y61.353 E9.34852
G1 X71.111 Y61.95 E9.36219
G1 X70.635 Y62.498 E9.37584
G1 X70.101 Y62.991 E9.38951
G1 X69.516 Y63.421 E9.40317
G1 X68.887 Y63.785 E9.41684
G1 X68.222 Y64.078 E9.43051
G1 X67.529 Y64.296 E9.44417
G1 X66.817 Y64.436 E9.45782
G1 X65.9 Y64.5 E9.47511
G1 X34.1 Y64.5 E10.07329
G1 X33.375 Y64.46 E10.08695
G1 X32.658 Y64.341 E10.10062
G1 X31.959 Y64.143 E10.11428
G1 X31.286 Y63.87 E10.12795
G1 X30.647 Y63.525 E10.14161
G1 X30.05 Y63.111 E10.15527
G1 X29.502 Y62.635 E10.16893
G1 X29.009 Y62.101 E10.1826
G1 X28.579 Y61.516 E10.19625
G1 X28.215 Y60.887 E10.20992
G1 X27.922 Y60.222 E10.22359
G1 X27.704 Y59.529 E10.23726
G1 X27.564 Y58.817 E10.25091
G1 X27.5 Y57.9 E10.2682
G1 X27.5 Y42.1 E10.56541
G0 F3600 X27.9 Y42.1
G1 F1800 X27.94 Y41.397 E10.57865
G1 X28.059 Y40.703 E10.5919
G1 X28.257 Y40.028 E10.60513
G1 X28.529 Y39.379 E10.61837
G1 X28.874 Y38.765 E10.63161
G1 X29.285 Y38.194 E10.64485
G1 X29.759 Y37.673 E10.6581
G1 X30.289 Y37.209 E10.67135
G1 X30.868 Y36.809 E10.68459
G1 X31.489 Y36.477 E10.69783
G1 X32.143 Y36.217 E10.71107
G1 X32.823 Y36.033 E10.72432
G1 X33.519 Y35.927 E10.73756
G1 X34.1 Y35.9 E10.74851
G1 X65.9 Y35.9 E11.34668
G1 X66.603 Y35.94 E11.35993
G1 X67.297 Y36.059 E11.37317
G1 X67.972 Y36.257 E11.3864
G1 X68.621 Y36.529 E11.39964
G1 X69.235 Y36.874 E11.41289
G1 X69.806 Y37.285 E11.42612
G1 X70.327 Y37.759 E11.43937
G1 X70.791 Y38.289 E11.45262
G1 X71.191 Y38.868 E11.46586
G1 X71.523 Y39.489 E11.47911
G1 X71.783 Y40.143 E11.49234
G1 X71.967 Y40.823 E11.5056
G1 X72.073 Y41.519 E11.51884
G1 X72.1 Y42.1 E11.52978
G1 X72.1 Y57.9 E11.82699
G1 X72.06 Y58.603 E11.84023
G1 X71.941 Y59.297 E11.85348
G1 X71.743 Y59.972 E11.86671
G1 X71.471 Y60.621 E11.87994
G1 X71.126 Y61.235 E11.89319
G1 X70.715 Y61.806 E11.90643
G1 X70.241 Y62.327 E11.91968
G1 X69.711 Y62.791 E11.93293
G1 X69.132 Y63.191 E11.94616
G1 X68.511 Y63.523 E11.95941
G1 X67.857 Y63.783 E11.97265
G1 X67.177 Y63.967 E11.9859
G1 X66.481 Y64.073 E11.99914
G1 X65.9 Y64.1 E12.01008
G1 X34.1 Y64.1 E12.60826
G1 X33.397 Y64.06 E12.6215
G1 X32.703 Y63.941 E12.63475
G1 X32.028 Y63.743 E12.64798
G1 X31.379 Y63.471 E12.66122
G1 X30.765 Y63.126 E12.67447
G1 X30.194 Y62.715 E12.6877
G1 X29.673 Y62.241 E12.70095
G1 X29.209 Y61.711 E12.7142
G1 X28.809 Y61.132 E12.72744
G1 X28.477 Y60.511 E12.74068
G1 X28.217 Y59.857 E12.75392
G1 X28.033 Y59.177 E12.76717
G1 X27.927 Y58.481 E12.78042
G1 X27.9 Y57.9 E12.79136
G1 X27.9 Y42.1 E13.08856
G0 F3600 X28.3 Y42.1
G1 F1800 X28.34 Y41.42 E13.10138
G1 X28.459 Y40.75 E13.11418
G1 X28.656 Y40.098 E13.12699
G1 X28.928 Y39.474 E13.13979
G1 X29.272 Y38.886 E13.15261
G1 X29.682 Y38.342 E13.16542
G1 X30.153 Y37.851 E13.17822
G1 X30.678 Y37.417 E13.19103
G1 X31.25 Y37.048 E13.20384
G1 X31.862 Y36.749 E13.21665
G1 X32.504 Y36.524 E13.22945
G1 X33.169 Y36.375 E13.24227
G1 X34.1 Y36.3 E13.25984
G1 X65.9 Y36.3 E13.85801
G1 X66.58 Y36.34 E13.87083
G1 X67.25 Y36.459 E13.88363
G1 X67.902 Y36.656 E13.89644
G1 X68.526 Y36.928 E13.90924
G1 X69.114 Y37.272 E13.92206
G1 X69.658 Y37.682 E13.93487
G1 X70.149 Y38.153 E13.94767
G1 X70.583 Y38.678 E13.96048
G1 X70.952 Y39.25 E13.97329
G1 X71.251 Y39.862 E13.9861
G1 X71.476 Y40.504 E13.99889
G1 X71.625 Y41.169 E14.01171
G1 X71.7 Y42.1 E14.02928
G1 X71.7 Y57.9 E14.32649
G1 X71.66 Y58.58 E14.3393
G1 X71.541 Y59.25 E14.3521
G1 X71.344 Y59.902 E14.36492
G1 X71.072 Y60.526 E14.37772
G1 X70.728 Y61.114 E14.39053
G1 X70.318 Y61.658 E14.40335
G1 X69.847 Y62.149 E14.41615
G1 X69.322 Y62.583 E14.42896
G1 X68.75 Y62.952 E14.44176
G1 X68.138 Y63.251 E14.45458
G1 X67.496 Y63.476 E14.46737
G1 X66.831 Y63.625 E14.48019
G1 X65.9 Y63.7 E14.49776
G1 X34.1 Y63.7 E15.09594
G1 X33.42 Y63.66 E15.10875
G1 X32.75 Y63.541 E15.12155
G1 X32.098 Y63.344 E15.13436
G1 X31.474 Y63.072 E15.14717
G1 X30.886 Y62.728 E15.15998
G1 X30.342 Y62.318 E15.1728
G1 X29.851 Y61.847 E15.18559
G1 X29.417 Y61.322 E15.19841
G1 X29.048 Y60.75 E15.21121
G1 X28.749 Y60.138 E15.22402
G1 X28.524 Y59.496 E15.23682
G1 X28.375 Y58.831 E15.24964
G1 X28.3 Y57.9 E15.26721
G1 X28.3 Y42.1 E15.56442
G0 F3600 X28.7 Y42.1
G1 F1800 X28.74 Y41.444 E15.57678
G1 X28.859 Y40.798 E15.58913
G1 X29.056 Y40.171 E15.6015
G1 X29.328 Y39.573 E15.61385
G1 X29.67 Y39.012 E15.62621
G1 X30.078 Y38.497 E15.63857
G1 X30.545 Y38.035 E15.65093
G1 X31.065 Y37.634 E15.66328
G1 X31.629 Y37.298 E15.67563
G1 X32.231 Y37.034 E15.688
G1 X32.86 Y36.844 E15.70036
G1 X33.507 Y36.733 E15.7127
G1 X34.1 Y36.7 E15.72388
G1 X65.9 Y36.7 E16.32205
G1 X66.556 Y36.74 E16.33441
G1 X67.202 Y36.859 E16.34677
G1 X67.829 Y37.056 E16.35913
G1 X68.427 Y37.328 E16.37149
G1 X68.988 Y37.67 E16.38385
G1 X69.503 Y38.078 E16.39621
G1 X69.965 Y38.545 E16.40857
G1 X70.366 Y39.065 E16.42092
G1 X70.702 Y39.629 E16.43327
G1 X70.966 Y40.231 E16.44563
G1 X71.156 Y40.86 E16.45799
G1 X71.267 Y41.507 E16.47034
G1 X71.3 Y42.1 E16.48151
G1 X71.3 Y57.9 E16.77872
G1 X71.26 Y58.556 E16.79108
G1 X71.141 Y59.202 E16.80344
G1 X70.944 Y59.829 E16.8158
G1 X70.672 Y60.427 E16.82816
G1 X70.33 Y60.988 E16.84052
G1 X69.922 Y61.503 E16.85288
G1 X69.455 Y61.965 E16.86523
G1 X68.935 Y62.366 E16.87759
G1 X68.371 Y62.702 E16.88993
G1 X67.769 Y62.966 E16.9023
G1 X67.14 Y63.156 E16.91466
G1 X66.493 Y63.267 E16.92701
G1 X65.9 Y63.3 E16.93818
G1 X34.1 Y63.3 E17.53636
G1 X33.444 Y63.26 E17.54872
G1 X32.798 Y63.141 E17.56107
G1 X32.171 Y62.944 E17.57344
G1 X31.573 Y62.672 E17.58579
G1 X31.012 Y62.33 E17.59815
G1 X30.497 Y61.922 E17.61051
G1 X30.035 Y61.455 E17.62287
G1 X29.634 Y60.935 E17.63522
G1 X29.298 Y60.371 E17.64757
G1 X29.034 Y59.769 E17.65994
G1 X28.844 Y59.14 E17.6723
G1 X28.733 Y58.493 E17.68464
G1 X28.7 Y57.9 E17.69582
G1 X28.7 Y42.1 E17.99302
G0 F3600 X29.1 Y42.1
G1 F1800 X29.14 Y41.469 E18.00492
G1 X29.259 Y40.848 E18.01681
G1 X29.456 Y40.248 E18.02869
G1 X29.727 Y39.676 E18.04059
G1 X30.067 Y39.144 E18.05247
G1 X30.473 Y38.659 E18.06437
G1 X30.936 Y38.229 E18.07625
G1 X31.45 Y37.86 E18.08816
G1 X32.006 Y37.56 E18.10004
G1 X32.595 Y37.332 E18.11192
G1 X33.209 Y37.18 E18.12382
G1 X34.1 Y37.1 E18.14065
G1 X65.9 Y37.1 E18.73882
G1 X66.531 Y37.14 E18.75072
G1 X67.152 Y37.259 E18.76261
G1 X67.752 Y37.456 E18.77449
G1 X68.324 Y37.727 E18.7864
G1 X68.856 Y38.067 E18.79827
G1 X69.341 Y38.473 E18.81017
G1 X69.771 Y38.936 E18.82206
G1 X70.14 Y39.45 E18.83396
G1 X70.44 Y40.006 E18.84584
G1 X70.668 Y40.595 E18.85772
G1 X70.82 Y41.209 E18.86962
G1 X70.9 Y42.1 E18.88645
G1 X70.9 Y57.9 E19.18365
G1 X70.86 Y58.531 E19.19555
G1 X70.741 Y59.152 E19.20744
G1 X70.544 Y59.752 E19.21932
G1 X70.273 Y60.324 E19.23123
G1 X69.933 Y60.856 E19.2431
G1 X69.527 Y61.341 E19.255
G1 X69.064 Y61.771 E19.26689
G1 X68.55 Y62.14 E19.27879
G1 X67.994 Y62.44 E19.29067
G1 X67.405 Y62.668 E19.30255
G1 X66.791 Y62.82 E19.31445
G1 X65.9 Y62.9 E19.33128
G1 X34.1 Y62.9 E19.92946
G1 X33.469 Y62.86 E19.94135
G1 X32.848 Y62.741 E19.95324
G1 X32.248 Y62.544 E19.96512
G1 X31.676 Y62.273 E19.97703
G1 X31.144 Y61.933 E19.9889
G1 X30.659 Y61.527 E20.0008
G1 X30.229 Y61.064 E20.01269
G1 X29.86 Y60.55 E20.02459
G1 X29.56 Y59.994 E20.03647
G1 X29.332 Y59.405 E20.04835
G1 X29.18 Y58.791 E20.06025
G1 X29.1 Y57.9 E20.07708
G1 X29.1 Y42.1 E20.37429
G0 F3600 X29.5 Y42.1
G1 F1800 X29.54 Y41.495 E20.38569
G1 X29.659 Y40.901 E20.39709
G1 X29.855 Y40.327 E20.4085
G1 X30.126 Y39.784 E20.41991
G1 X30.465 Y39.281 E20.43132
G1 X30.867 Y38.828 E20.44272
G1 X31.325 Y38.431 E20.45412
G1 X31.832 Y38.098 E20.46553
G1 X32.378 Y37.834 E20.47694
G1 X32.954 Y37.645 E20.48834
G1 X33.55 Y37.533 E20.49975
G1 X34.1 Y37.5 E20.51011
G1 X65.9 Y37.5 E21.10829
G1 X66.505 Y37.54 E21.11969
G1 X67.099 Y37.659 E21.13109
G1 X67.673 Y37.855 E21.1425
G1 X68.216 Y38.126 E21.15391
G1 X68.719 Y38.465 E21.16532
G1 X69.172 Y38.867 E21.17671
G1 X69.569 Y39.325 E21.18812
G1 X69.902 Y39.832 E21.19953
G1 X70.166 Y40.378 E21.21093
G1 X70.355 Y40.954 E21.22234
G1 X70.467 Y41.55 E21.23374
G1 X70.5 Y42.1 E21.24411
G1 X70.5 Y57.9 E21.54132
G1 X70.46 Y58.505 E21.55272
G1 X70.341 Y59.099 E21.56412
G1 X70.145 Y59.673 E21.57553
G1 X69.874 Y60.216 E21.58694
G1 X69.535 Y60.719 E21.59835
G1 X69.133 Y61.172 E21.60974
G1 X68.675 Y61.569 E21.62115
G1 X68.168 Y61.902 E21.63256
G1 X67.622 Y62.166 E21.64396
G1 X67.046 Y62.355 E21.65537
G1 X66.45 Y62.467 E21.66677
G1 X65.9 Y62.5 E21.67714
G1 X34.1 Y62.5 E22.27531
G1 X33.495 Y62.46 E22.28672
G1 X32.901 Y62.341 E22.29811
G1 X32.327 Y62.145 E22.30952
G1 X31.784 Y61.874 E22.32094
G1 X31.281 Y61.535 E22.33235
G1 X30.828 Y61.133 E22.34374
G1 X30.431 Y60.675 E22.35514
G1 X30.098 Y60.168 E22.36655
G1 X29.834 Y59.622 E22.37796
G1 X29.645 Y59.046 E22.38937
G1 X29.533 Y58.45 E22.40077
G1 X29.5 Y57.9 E22.41114
G1 X29.5 Y42.1 E22.70834
G0 F3600 X29.9 Y42.1
G1 F1800 X29.94 Y41.522 E22.71924
G1 X30.059 Y40.955 E22.73014
G1 X30.255 Y40.41 E22.74103
